src/status/symbolic/network-vpn-disabled-symbolic.svg

<?xml version="1.0" encoding="UTF-8"?>
<svg width="16px" height="16px" version="1.1" viewBox="0 0 16 16" xmlns="http://www.w3.org/2000/svg">
 <path d="m7.998 0c-0.27102 0-0.54135 0.061232-0.81445 0.15625-0.012459 0.004312-0.024831 0.008871-0.037109 0.013672-1.1343 0.44698-3.7671 1.3187-5.1914 1.8867-0.00785 0.00316-0.015667 0.00641-0.023438 0.00977-0.22994 0.098558-0.55638 0.30917-0.73828 0.63867s-0.18925 0.61851-0.18945 0.84766l-0.003906 5.3418c-0.001241 1.4947 0.47437 2.739 1.4727 3.709 0.99665 0.96839 2.3954 1.7697 4.4707 3.0352 0.00124 7.68e-4 0.00267 0.0012 0.00391 2e-3 0.00166 1e-3 0.00224 8.44e-4 0.00391 2e-3 0.31446 0.19425 0.67726 0.35421 1.0391 0.35547l0.00195 2e-3h0.00195l0.00195-2e-3c0.35749-0.0013 0.73686-0.16346 1.0527-0.35938h0.00195c2.0468-1.2376 3.4453-2.0341 4.4473-3.0059 1.0041-0.97382 1.4968-2.2275 1.498-3.7363l0.0039-5.3418c1.93e-4 -0.22992-0.0038-0.52168-0.19141-0.85742-0.18756-0.33575-0.53463-0.55217-0.7832-0.64648-0.0065-0.00202-0.013-0.00397-0.01953-0.00586-1.3647-0.48562-3.9846-1.4171-5.1465-1.875-0.012925-0.004826-0.025948-0.009385-0.039062-0.013672-0.27311-0.09503-0.55163-0.15625-0.82227-0.15625zm0 1c0.13725 0 0.28371 0.028344 0.49414 0.10156 1.2077 0.47595 3.8144 1.3997 5.1777 1.8848 0.26536 0.10068 0.33035 0.2369 0.33008 0.56641l-0.0039 5.3418c-0.0023 2.6818-1.3553 3.4048-5.4727 5.8945-0.2641 0.16398-0.39277 0.21051-0.5293 0.21094-0.12747-4.44e-4 -0.25937-0.047-0.52344-0.21094-4.1723-2.5445-5.4729-3.2311-5.4707-5.8945l0.00391-5.3418c2.852e-4 -0.32951 0.06411-0.45658 0.32031-0.56641 1.3542-0.54003 3.9817-1.4088 5.1895-1.8848 0.21044-0.073221 0.35627-0.10156 0.48437-0.10156z" fill="#363636" opacity=".35"/>
 <path d="m6.5 5a2.5 2.5 0 0 0-2.5 2.5 2.5 2.5 0 0 0 2.5 2.5 2.5 2.5 0 0 0 2.4434-2h2.0566v0.5c0 0.277 0.223 0.5 0.5 0.5s0.5-0.223 0.5-0.5v-0.5h0.5c0.277 0 0.5-0.223 0.5-0.5s-0.223-0.5-0.5-0.5h-3.5508a2.5 2.5 0 0 0-2.4492-2zm0 1a1.5 1.5 0 0 1 1.5 1.5 1.5 1.5 0 0 1-1.5 1.5 1.5 1.5 0 0 1-1.5-1.5 1.5 1.5 0 0 1 1.5-1.5z" fill="#363636" opacity=".35"/>
 <rect transform="rotate(45)" x="1.3137" y="-.5" width="20" height="1" rx=".5" ry=".5" fill="#363636" stroke-linecap="round" stroke-linejoin="round" stroke-width=".48307" style="paint-order:markers stroke fill"/>
</svg>

<svg xmlns="http://www.w3.org/2000/svg" width="16" height="16">
    <path fill="#050505" d="M7.998 0a2.484 2.484 0 0 0-.852.17C6.012.617 3.38 1.489 1.955 2.057a1 1 0 0 0-.023.01c-.23.098-.557.309-.739.638s-.189.619-.19.848L1 8.895c-.001 1.494.474 2.739 1.473 3.709.996.968 2.395 1.77 4.47 3.035.002 0 .003 0 .004.002.002 0 .003 0 .004.002.315.194.677.354 1.04.355l.001.002h.002l.002-.002c.358-.001.737-.163 1.053-.36h.002c2.047-1.237 3.445-2.033 4.447-3.005 1.004-.974 1.497-2.228 1.498-3.736L15 3.555c0-.23-.004-.522-.191-.858-.188-.335-.535-.552-.784-.646a1.041 1.041 0 0 0-.02-.006C12.642 1.56 10.022.628 8.86.17A2.53 2.53 0 0 0 7.998 0zm0 1c.137 0 .284.028.494.102 1.208.476 3.815 1.4 5.178 1.884.265.101.33.237.33.567l-.004 5.342c-.002 2.681-1.355 3.404-5.473 5.894-.264.164-.392.21-.529.211-.127 0-.26-.047-.523-.21C3.298 12.244 1.998 11.557 2 8.894l.004-5.342c0-.33.064-.457.32-.567 1.354-.54 3.982-1.408 5.19-1.884A1.47 1.47 0 0 1 7.998 1z" opacity=".35"/>
    <path fill="#050505" d="M6.5 5A2.5 2.5 0 0 0 4 7.5 2.5 2.5 0 0 0 6.5 10a2.5 2.5 0 0 0 2.443-2H11v.5a.499.499 0 1 0 1 0V8h.5a.499.499 0 1 0 0-1H8.95A2.5 2.5 0 0 0 6.5 5zm0 1A1.5 1.5 0 0 1 8 7.5 1.5 1.5 0 0 1 6.5 9 1.5 1.5 0 0 1 5 7.5 1.5 1.5 0 0 1 6.5 6z" opacity=".35"/>
    <rect width="20" height="1" x="1.314" y="-.5" fill="#050505" fill-opacity=".7" rx=".5" ry=".5" style="paint-order:markers stroke fill" transform="rotate(45)"/>
</svg>
